X:1
T: Miss Primrose
C:
R:Strathspey
Q: 128
K:A
M:4/4
L:1/16
|:A,3C E3G A3c e3g|agfe fedc BAGF EDCB,|A,3C E3G A3c e3g|bagf ee'3 c'a3 a4|
A,3C E3G A3c e3g|agfe fedc BAGF EDCB,|A,3C E3G A3c e3g|bagf ee'3 c'a3 a2c'2|
e'3c' a2c'2 e2c'2 a2e'2|d'3b g2e2 d2B2 G2b2|e'3c' a2c'2 e2a2 c2a2|bagf ee'3 aa3 a3c'|
e'3c' a2c'2 e2c'2 a2c'2|d'3b g2e2 dBG2 EDB,2|A,3C E3G A3c e3a|bagf ee'3 c'a3 a4:|
